X:1068
T:The Tabor Boy.
M:2/4
L:1/16
Q:1/4=104
I: :: ::
Z:Jack Campin * www.campin.me.uk * 2009
K:C
 g3`````f``e3``c | GA`GF  G2c2| B2``c2  {e}d2``c2 |(f2e2)(e2d2)|
(g3`````f``e3``c)|(GA`GF) E2G2|(Ac)(Bd)   (ce)(df)| e4    d2c2:|
(c'b)(c'b) c'3^g | a^gag  a3 e| fe``dc     Bc``de | fedc  d3`b |
 c'b``c'b  c'3^g | a^gag  a3 e| fe``dc     Bf``ed | e2d2  c4  :|
<end>
<start>
